icons/panda.svg

<svg width="16" height="16" viewBox="0 0 16 16" fill="none" xmlns="http://www.w3.org/2000/svg">
<path d="M10.1737 3.28646C9.2574 2.99057 8.32251 2.95048 7.37002 3.04647C6.83723 3.10859 6.32455 3.22717 5.82996 3.4361C4.76186 3.88671 3.95916 4.66765 3.48116 5.84386C3.13786 6.68635 3.01371 7.58192 3.00115 8.50065C2.98757 9.47188 3.09564 10.429 3.26754 11.3782C3.42386 12.2388 3.63145 13.0824 3.9285 13.8967C3.95665 13.974 3.99183 14.0006 4.06672 14C5.00514 13.9977 5.94355 13.9977 6.88146 13.9977H7.71533C7.73644 13.9977 7.75805 13.9966 7.78218 13.9949L7.82239 13.9927L7.80731 13.9509C7.79895 13.9275 7.79007 13.9043 7.78067 13.8814C7.71281 13.7182 7.64345 13.5562 7.57459 13.3935C7.42208 13.0426 7.27662 12.6879 7.13831 12.3297C6.72615 11.241 6.4105 10.1196 6.31399 8.93262C6.27177 8.40861 6.2778 7.88798 6.40698 7.37751C6.55475 6.79421 6.87191 6.38256 7.39817 6.21033C7.87261 6.04968 8.3794 6.05559 8.85077 6.22728C9.28002 6.38369 9.55948 6.71289 9.67861 7.20529C9.76958 7.58362 9.76958 7.9659 9.70072 8.34762C9.64744 8.64125 9.53988 8.9089 9.34737 9.12348C9.00156 9.50746 8.5698 9.59611 8.10638 9.56675C8.02308 9.56058 7.93995 9.55192 7.85707 9.54077L7.73644 9.52666L7.73895 9.56731C7.7392 9.59008 7.74139 9.61277 7.74549 9.63507C7.76559 9.72429 7.78419 9.81351 7.80279 9.90329C7.84802 10.1184 7.89326 10.3341 7.95207 10.5453C8.06616 10.9598 8.19936 11.3641 8.35015 11.7594C9.42578 11.6651 10.4165 11.3647 11.468 10.6554L11.5122 10.6244C11.9641 10.3082 12.3295 9.89878 12.5818 9.36968C12.9899 8.5125 13.0694 7.59661 12.9482 6.65078C12.8226 5.67446 12.433 4.85512 11.762 4.21252C11.2966 3.76643 10.7583 3.47506 10.1737 3.28646Z" fill="#EEAC30"/>
</svg>

<svg xmlns="http://www.w3.org/2000/svg" width="16" height="16" fill="none" viewBox="0 0 16 16"><path fill="#EEAC30" d="M10.174 3.286c-.917-.295-1.851-.336-2.804-.24a5.6 5.6 0 0 0-1.54.39c-1.068.45-1.87 1.232-2.349 2.408-.343.842-.467 1.738-.48 2.657-.013.97.095 1.928.267 2.877.156.86.363 1.704.66 2.519.029.077.064.104.139.103l2.814-.002h.834l.067-.003.04-.002-.015-.042-.026-.07-.206-.488q-.229-.526-.437-1.063c-.412-1.089-.727-2.21-.824-3.397-.042-.524-.036-1.045.093-1.555.148-.584.465-.995.991-1.168.475-.16.981-.154 1.453.017.429.157.708.486.828.978.09.379.09.76.022 1.143-.054.293-.161.56-.354.775-.345.384-.777.473-1.24.444a4 4 0 0 1-.25-.026l-.12-.014.002.04a.4.4 0 0 0 .006.068l.058.268c.045.215.09.431.15.642q.17.623.397 1.214a6.3 6.3 0 0 0 3.118-1.104l.044-.03a3.2 3.2 0 0 0 1.07-1.255c.408-.857.487-1.773.366-2.72-.125-.976-.515-1.795-1.186-2.437a4.04 4.04 0 0 0-1.588-.927"/></svg>
